X:110
T:Pr noun langui, long dou camin
T:Pour ne pas s'ennuyer en chemin
M:6/8
L:1/8
K:Cm
c=Bc G2G | e2e d3 | cde c2d | c2=B c3 :|
BBB e2B | B2B G2G | c2B A2G | F3 G3 |:
GAF G3 | GAF G2G | c2e d2c | c2=B c3 :|
%%newpage
%%center $1Les notes hautes
%%begintext justify
